X: 16023
T: Green Brechans O' Branton, The
R: jig
M: 6/8
K: Gmajor
|:f2B BdB|e2A AcA|f2B BdB|~d3 ~g3|
f2B BdB|e2A AcA|Bcd ecA|~d3 ~g3:|
|:fdB fdB|ecA ecA|fdB fdB|~d3 ~g3|
fdB fdB|ecA ecA|Bcd ecA|~d3 ~g3:|

